X: 1
T:Captain Byng
M:C
L:1/8
Q:80
C:Trad. Arr. M. Grey
S:Reel
K:HP
[| g|
{a}fdgd{g}B{d}G{e}Gd|
{g}c{d}Aag{a}fd{g}ef|
{gf}g2{a}gd{g}B{d}G{e}Gd|  !
{g}ce{g}dB{g}c{d}A{e}Ag{a}fdgd{g}B{d}G{e}Gd|
{g}c{d}Aag{a}fd{g}ef|
{gf}g2{a}gd{g}B{d}G{e}Gd|  !
{g}ce{g}dB{g}c{d}A{e}A|] [|
{d}c|
{g}B{d}G{g}dG{g}B{d}G{e}Gd|
{g}c{d}A{g}eA{g}cd{g}eg|  !
{a}B{d}G{g}dG{g}B{d}G{e}Gd|
{g}ce{g}dB{g}c{d}A{e}A{d}c{g}B{d}G{g}dG{g}B{d}G{e}Gd|
{g}c{d}A{g}eA{g}fd{g}ef|  !
{gf}g2{a}gd{g}B{d}G{e}Gd|
{g}ce{g}dB{g}c{d}A{e}A|]
